!!!!SEGMENT: T801_Bri-w2p16h29m1-8.krn
!!!COM: Britten, (Edward) Benjamin
!!!OTL: single movement work
!!!AGN: Instrumental
!!!AGN-sub: Chamber
!!!CNT: English
!!!ODT: 1932
!!!OPR: Phantasy for Oboe, Violin, Viola and Violincello
!!!filename: T801_Bri-w2p16h29m1-8.krn
**kern	**dynam	**kern	**dynam	**kern	**dynam	**kern	**dynam
*grp:A	*	*grp:A	*	*grp:B	*	*grp:A	*
*part4	*	*part3	*	*part2	*	*part1	*
*staff4	*	*staff3	*	*staff2	*	*staff1	*
*ICstr	*	*ICstr	*	*ICstr	*	*ICww	*
*Icello	*	*Iviola	*	*Ivioln	*	*Ioboe	*
*I"Violoncello	*	*I"Viola	*	*I"Violin I	*	*I"Oboe	*
*I'vc	*	*I'vla	*	*I'vn	*	*I'ob	*
*clefF4	*	*clefC3	*	*clefG2	*	*clefG2	*
*k[]	*	*k[]	*	*k[]	*	*k[]	*
*C:	*	*C:	*	*C:	*	*C:	*
!!LO:TX:tempo:a:t=Poco a poco accel. e più agitato [Con moto (Molto più lento)]\n[[quarter]=58&#8211;63]
*M3/4	*	*M3/4	*	*M3/4	*	*M3/4	*
!!LO:REH:t=29
=1	=1	=1	=1	=1	=1	=1	=1
*	*	*	*	*Xtuplet	*	*	*
!	!	!	!	!	!	!LO:TX:t=[[quarter]=61]	!
!	!	!	!LO:DY:t=%s sub.	!LO:T:n=1:a	!	!LO:TX:a:B:t=Poco a poco accel. e più agitato	!
4r	.	[2.coXr [2.goXr 2.ccyy 2.ggyy	pp	12bL]	ppp	(2ggn^	f
.	.	.	.	(12b	.	.	.
.	.	.	.	12a#XJ)	.	.	.
8r	.	.	.	(12g#XL	.	.	.
.	.	.	.	12b	.	.	.
!LO:TX:a:t=pizz.	!LO:DY:t=%s un poco marc.	!	!	!	!	!	!
8BB	pp	.	.	.	.	.	.
.	.	.	.	12a#J)	.	.	.
4EE~	.	.	.	(12g#L	.	[4cc	>
.	.	.	.	12b	.	.	.
.	.	.	.	12a#J)	.	.	.
=2	=2	=2	=2	=2	=2	=2	=2
4DD#X^ 4AA#X	.	2.cr] 2.gr] 2.ccyy 2.ggyy	.	(12g#XL	.	4cc_	.
.	.	.	.	12b	.	.	.
.	.	.	.	12a#XJ)	.	.	.
4EE~ 4BB	.	.	.	(12g#L	.	8cc])	.
.	.	.	.	12b	.	.	.
.	.	.	.	.	.	8r	]
.	.	.	.	12a#J)	.	.	.
8r	.	.	.	(12bL	<	4r	.
.	.	.	.	12cc#X	.	.	.
8BB	.	.	.	.	.	.	.
.	.	.	.	12eeJ)	[	.	.
=3	=3	=3	=3	=3	=3	=3	=3
4EE~	.	[2.C [2.G	pp	(12G#XL	ppp	4r	.
.	.	.	.	12B	.	.	.
.	.	.	.	12A#XJ)	.	.	.
4FF#X^ 4C#X	.	.	.	(12G#L	.	16r	.
.	.	.	.	.	.	(>16c	pp
.	.	.	.	12B	.	.	.
.	.	.	.	.	.	[4.g	.
.	.	.	.	12A#J)	.	.	.
4EE~ 4BB	.	.	.	(12G#L	.	.	.
.	.	.	.	12B	.	.	.
.	.	.	.	12A#J)	.	.	.
!!linebreak:original
=4	=4	=4	=4	=4	=4	=4	=4
8r	.	2.C_ 2.G_	.	(12G#XL	.	8g])	.
.	.	.	.	12B	.	.	.
8BB	.	.	.	.	.	(4g	.
.	.	.	.	12A#XJ)	.	.	.
4EE~	.	.	.	(12G#L	.	.	.
.	.	.	.	12B	.	.	.
.	.	.	.	.	.	8a	.
.	.	.	.	12A#J)	.	.	.
!	!	!	!	!	!	!LO:TUP:b	!
4DD#X^ 4AA#X	.	.	.	(12G#L	.	20eLL	<
.	.	.	.	.	.	20g	.
.	.	.	.	12B	.	.	.
.	.	.	.	.	.	20f	.
.	.	.	.	.	.	20e	.
.	.	.	.	12A#J)	.	.	.
.	.	.	.	.	.	20dJJ	.
=5	=5	=5	=5	=5	=5	=5	=5
4EE~ 4BB	.	2.C_ 2.G_	.	(12G#XL	.	4g)	[
.	.	.	.	12B	.	.	.
.	.	.	.	12A#XJ)	.	.	.
.	.	.	.	.	.	(>16qqg/LL	.
.	.	.	.	.	.	16qqa/JJ	.
!	!	!	!	!	!	!	!LO:DY:t=più %s
8r	.	.	.	(12G#L	.	[2g~	f
.	.	.	.	12B	.	.	.
8BB	.	.	.	.	.	.	.
.	.	.	.	12A#J)	.	.	.
4EE~	.	.	.	(12G#L	.	.	.
.	.	.	.	12B	.	.	.
.	.	.	.	12A#J)	.	.	.
=6	=6	=6	=6	=6	=6	=6	=6
4FF#X^ 4C#X	.	2.C_ 2.G_	.	(12G#XL	.	8gL]	<
.	.	.	.	12B	.	.	.
.	.	.	.	.	.	8aJ	.
.	.	.	.	12A#XJ)	.	.	.
4EE~ 4BB	.	.	.	(12G#L	.	12eL	[
.	.	.	.	12B	.	12d	.
.	.	.	.	12A#J)	.	12eJ	.
!	!	!	!	!	!	!LO:TX:a:t=(ten.)	!
8r	.	.	.	(12G#L	.	16gLL	>
.	.	.	.	.	.	16f	.
.	.	.	.	12B	.	.	.
8BB	.	.	.	.	.	16e	.
.	.	.	.	12A#J)	.	.	.
.	.	.	.	.	.	16dJJ	.
=7	=7	=7	=7	=7	=7	=7	=7
4EE~	.	2.C_ 2.G_	.	(12G#XL	.	2g)	]
.	.	.	.	12B	.	.	.
.	.	.	.	12A#XJ)	.	.	.
4DD#X^ 4AA#X	.	.	.	(12G#L	.	.	.
.	.	.	.	12B	.	.	.
.	.	.	.	12A#J)	.	.	.
.	.	.	.	.	.	(16qqa/LL	.
.	.	.	.	.	.	16qqf#X/JJ	.
4EE~ 4BB	.	.	.	(12G#L	.	[4g^>	.
.	.	.	.	12B	.	.	.
.	.	.	.	12A#J)	.	.	.
=8	=8	=8	=8	=8	=8	=8	=8
8r	.	2.C_ 2.G_	.	(12G#XL	.	4g])	.
.	.	.	.	12B	.	.	.
8BB	.	.	.	.	.	.	.
.	.	.	.	12A#XJ)	.	.	.
4EE~	.	.	.	(12G#L	.	8r	.
.	.	.	.	12B	.	.	.
.	.	.	.	.	.	(>4gi	p
.	.	.	.	12A#J)	.	.	.
4FF#X^ 4C#X	.	.	.	(12G#L	.	.	.
.	.	.	.	12B	.	.	.
.	.	.	.	.	.	[8a	.
.	.	.	.	12A#J)	.	.	.
=	=	=	=	=	=	=	=
*-	*-	*-	*-	*-	*-	*-	*-
!!!system-decoration: s1[(s2,s3,s4)]
!!!RDF**kern: > = above
!!!RDF**kern: < = below
!!!RDF**kern: i = marked note, color="hotpink", text="extra("
!!!EED: Gabriella Vici
!!!EEV: 2021/10/04
!!!EED2: Jason Lee
!!!Suter_Work_ID: Bri-2
!!!Suter_Example_Number: 801
!!!Suter_Example_ID: Bri-2/16/[29]1-8
!!!Premiere_Location: London,England
!!!Other_Tsigs: none
!!!Full_Unit_Duration: 13:04
!!!First_Publication_Year: 1935
!!!First_Public_Performance_Year: 1933
!!!Example_Total_Measures: 8
!!!Example_Timestamp_Duration: 19
!!!Example_Start_Tsig_Type: simple triple
!!!Example_Start_Tsig_Mean_Beat_Rate: 61
!!!Example_Start_Tsig_Beat_Rate: 61
!!!Example_Start_Tsig_Beat: quarter
!!!Example_Start_Tsig: 3/4
!!!Example_Start_Timestamp: 9:28
!!!Example_Start_Tempo_Expression: Poco a poco accel. e più agitato [Con moto (Molto più lento)]
!!!Example_Start_Notated_Beat_Rate: [58-63]
!!!Example_Start_Notated_Beat: [quarter]
!!!Example_Start_Measure: 334
!!!Example_Metadata_Validated: Y
!!!Example_End_Timestamp: 9:47
!!!Example_End_Measure: 341
!!!Example_Dataset: T
!!!Editorial_Comments: Example Start Notated Beat and Example Start Notated Beat Rate [quarter=58-63] based on most recent notated beat rate (SWFU m. 311). Example Start Tempo Expression [Con moto (Molto più lento)] based on most recent notated tempo expressions (SWFU, m. 324 and m. 311).
!!!Death_Place: Aldeburgh,England
!!!Death_Date: 4-Dec-1976
!!!Changing_Tsig: no
!!!Birth_Place: Lowestoft,England
!!!Birth_Date: 22-Nov-1913
!!!Audio_Example_Quarter_Note_Tempo:
!!!Audio_Example_Duration:
!!!EEV2: 2022/03/08
